source/img/svg/lead-magnit-mobile.svg

<svg width="252" height="61" viewBox="0 0 252 61" fill="none" xmlns="http://www.w3.org/2000/svg">
<rect width="240" height="50" rx="10" fill="black"/>
<g filter="url(#filter0_d)">
<rect x="133.22" y="13" width="94.5763" height="24" rx="5" fill="url(#paint0_linear)"/>
<path d="M152.048 29.144C153.956 29.144 155.336 28.172 155.336 26.792C155.336 25.592 154.28 24.956 153.476 24.872C154.352 24.716 155.216 24.056 155.216 23.048C155.216 21.716 153.92 20.876 152.048 20.876C150.644 20.876 149.504 21.416 148.856 22.148L149.708 23.216C150.272 22.676 151.1 22.388 151.88 22.388C152.792 22.388 153.512 22.7 153.512 23.336C153.512 23.924 152.828 24.188 151.88 24.188H150.26V25.688H151.88C153.08 25.688 153.644 25.976 153.644 26.612C153.644 27.212 153.032 27.632 151.976 27.632C151.196 27.632 150.188 27.296 149.636 26.72L148.748 27.86C149.336 28.58 150.572 29.144 152.048 29.144ZM164.569 29L161.485 20.996H159.349L156.253 29H158.197L158.701 27.644H162.133L162.625 29H164.569ZM161.665 26.144H159.169L160.417 22.7L161.665 26.144ZM172.64 29L169.244 24.752L172.424 20.996H170.324L167.492 24.572V20.996H165.788V29H167.492V26.54L168.116 25.796L170.54 29H172.64ZM181.361 29L178.277 20.996H176.141L173.045 29H174.989L175.493 27.644H178.925L179.417 29H181.361ZM178.457 26.144H175.961L177.209 22.7L178.457 26.144ZM185.246 29.144C187.154 29.144 188.534 28.172 188.534 26.792C188.534 25.592 187.478 24.956 186.674 24.872C187.55 24.716 188.414 24.056 188.414 23.048C188.414 21.716 187.118 20.876 185.246 20.876C183.842 20.876 182.702 21.416 182.054 22.148L182.906 23.216C183.47 22.676 184.298 22.388 185.078 22.388C185.99 22.388 186.71 22.7 186.71 23.336C186.71 23.924 186.026 24.188 185.078 24.188H183.458V25.688H185.078C186.278 25.688 186.842 25.976 186.842 26.612C186.842 27.212 186.23 27.632 185.174 27.632C184.394 27.632 183.386 27.296 182.834 26.72L181.946 27.86C182.534 28.58 183.77 29.144 185.246 29.144ZM197.766 29L194.682 20.996H192.546L189.45 29H191.394L191.898 27.644H195.33L195.822 29H197.766ZM194.862 26.144H192.366L193.614 22.7L194.862 26.144ZM201.776 29V22.496H204.104V20.996H197.72V22.496H200.06V29H201.776ZM205.676 20.996V29H209.42C211.16 29 212.108 27.824 212.108 26.42C212.108 25.028 211.148 23.84 209.42 23.84H207.38V20.996H205.676ZM209.192 25.34C209.864 25.34 210.368 25.76 210.368 26.42C210.368 27.092 209.864 27.5 209.192 27.5H207.38V25.34H209.192Z" fill="#F5F9FF"/>
</g>
<path d="M18.1956 22C19.9736 22 20.9116 20.88 20.9116 19.48C20.9116 18.304 20.1136 17.338 19.1196 17.184C20.0016 17.002 20.7296 16.218 20.7296 15.042C20.7296 13.796 19.8196 12.662 18.0416 12.662H13.1276V22H18.1956ZM17.6076 16.4H15.1156V14.37H17.6076C18.2796 14.37 18.6996 14.804 18.6996 15.392C18.6996 15.98 18.2796 16.4 17.6076 16.4ZM17.6776 20.278H15.1156V18.108H17.6776C18.4616 18.108 18.8816 18.612 18.8816 19.2C18.8816 19.872 18.4336 20.278 17.6776 20.278ZM28.2068 22V17.632C28.2068 15.686 26.7928 15.07 25.2528 15.07C24.1888 15.07 23.1248 15.406 22.2988 16.134L22.9708 17.324C23.5448 16.792 24.2168 16.526 24.9448 16.526C25.8408 16.526 26.4288 16.974 26.4288 17.66V18.57C25.9808 18.038 25.1828 17.744 24.2868 17.744C23.2088 17.744 21.9348 18.346 21.9348 19.928C21.9348 21.44 23.2088 22.168 24.2868 22.168C25.1688 22.168 25.9668 21.846 26.4288 21.3V22H28.2068ZM25.0008 20.964C24.3008 20.964 23.7268 20.6 23.7268 19.97C23.7268 19.312 24.3008 18.948 25.0008 18.948C25.5748 18.948 26.1348 19.144 26.4288 19.536V20.376C26.1348 20.768 25.5748 20.964 25.0008 20.964ZM37.9644 22V15.238H35.6124L33.9744 19.27L32.3084 15.238H29.9704V22H31.7484V17.604L33.5684 22H34.3804L36.1864 17.604V22H37.9644ZM49.6701 22V15.238H43.3141V22H45.0921V16.792H47.8921V22H49.6701ZM54.5712 22.168C56.8112 22.168 58.1552 20.544 58.1552 18.612C58.1552 16.694 56.8112 15.07 54.5712 15.07C52.3452 15.07 51.0012 16.694 51.0012 18.612C51.0012 20.544 52.3452 22.168 54.5712 22.168ZM54.5712 20.586C53.4652 20.586 52.8492 19.676 52.8492 18.612C52.8492 17.562 53.4652 16.652 54.5712 16.652C55.6772 16.652 56.3072 17.562 56.3072 18.612C56.3072 19.676 55.6772 20.586 54.5712 20.586ZM61.2523 22V19.298H64.0523V22H65.8303V15.238H64.0523V17.744H61.2523V15.238H59.4743V22H61.2523ZM71.4594 22.168C73.1954 22.168 74.4554 20.866 74.4554 18.612C74.4554 16.358 73.1954 15.07 71.4594 15.07C70.6334 15.07 69.8914 15.434 69.3734 16.092V15.238H67.5954V24.576H69.3734V21.132C69.9194 21.832 70.6614 22.168 71.4594 22.168ZM70.8994 20.586C70.3254 20.586 69.6674 20.236 69.3734 19.816V17.422C69.6674 16.988 70.3254 16.652 70.8994 16.652C71.9214 16.652 72.6074 17.45 72.6074 18.612C72.6074 19.788 71.9214 20.586 70.8994 20.586ZM81.5955 22V17.632C81.5955 15.686 80.1815 15.07 78.6415 15.07C77.5775 15.07 76.5135 15.406 75.6875 16.134L76.3595 17.324C76.9335 16.792 77.6055 16.526 78.3335 16.526C79.2295 16.526 79.8175 16.974 79.8175 17.66V18.57C79.3695 18.038 78.5715 17.744 77.6755 17.744C76.5975 17.744 75.3235 18.346 75.3235 19.928C75.3235 21.44 76.5975 22.168 77.6755 22.168C78.5575 22.168 79.3555 21.846 79.8175 21.3V22H81.5955ZM78.3895 20.964C77.6895 20.964 77.1155 20.6 77.1155 19.97C77.1155 19.312 77.6895 18.948 78.3895 18.948C78.9635 18.948 79.5235 19.144 79.8175 19.536V20.376C79.5235 20.768 78.9635 20.964 78.3895 20.964ZM87.7691 22C89.1271 22 89.8551 21.188 89.8551 20.166C89.8551 19.354 89.3091 18.682 88.5671 18.514C89.1971 18.332 89.7151 17.786 89.7151 16.974C89.7151 16.064 89.0151 15.238 87.6431 15.238H83.3591V22H87.7691ZM87.3351 20.544H85.1371V19.284H87.3351C87.7831 19.284 88.0351 19.578 88.0351 19.914C88.0351 20.306 87.7691 20.544 87.3351 20.544ZM87.2791 17.828H85.1371V16.694H87.2791C87.6711 16.694 87.9091 16.932 87.9091 17.268C87.9091 17.576 87.6711 17.828 87.2791 17.828ZM93.2702 22L96.1402 17.758V22H97.9182V15.238H96.1262L93.3402 19.326V15.238H91.5622V22H93.2702ZM99.0533 22.168C100.775 22.168 101.615 21.062 101.895 18.724L102.119 16.792H104.261V22H106.039V15.238H100.565L100.131 18.514C99.9213 20.152 99.5993 20.712 99.0533 20.712V22.168ZM110.954 22.168C112.34 22.168 113.18 21.566 113.628 20.936L112.466 19.858C112.144 20.306 111.654 20.586 111.038 20.586C109.96 20.586 109.204 19.788 109.204 18.612C109.204 17.436 109.96 16.652 111.038 16.652C111.654 16.652 112.144 16.904 112.466 17.38L113.628 16.288C113.18 15.672 112.34 15.07 110.954 15.07C108.868 15.07 107.37 16.54 107.37 18.612C107.37 20.698 108.868 22.168 110.954 22.168ZM116.583 22L117.913 19.676H119.299V22H121.077V15.238H116.975C115.477 15.238 114.637 16.26 114.637 17.45C114.637 18.654 115.365 19.354 116.135 19.55L114.567 22H116.583ZM117.255 18.192C116.751 18.192 116.443 17.884 116.443 17.45C116.443 17.03 116.765 16.736 117.255 16.736H119.299V18.192H117.255ZM19.4416 36V29.238H13.0856V36H14.8636V30.792H17.6636V36H19.4416ZM25.0707 36.168C26.8067 36.168 28.0667 34.866 28.0667 32.612C28.0667 30.358 26.8067 29.07 25.0707 29.07C24.2447 29.07 23.5027 29.434 22.9847 30.092V29.238H21.2067V38.576H22.9847V35.132C23.5307 35.832 24.2727 36.168 25.0707 36.168ZM24.5107 34.586C23.9367 34.586 23.2787 34.236 22.9847 33.816V31.422C23.2787 30.988 23.9367 30.652 24.5107 30.652C25.5327 30.652 26.2187 31.45 26.2187 32.612C26.2187 33.788 25.5327 34.586 24.5107 34.586ZM32.5048 36.168C34.7448 36.168 36.0888 34.544 36.0888 32.612C36.0888 30.694 34.7448 29.07 32.5048 29.07C30.2788 29.07 28.9348 30.694 28.9348 32.612C28.9348 34.544 30.2788 36.168 32.5048 36.168ZM32.5048 34.586C31.3988 34.586 30.7828 33.676 30.7828 32.612C30.7828 31.562 31.3988 30.652 32.5048 30.652C33.6108 30.652 34.2408 31.562 34.2408 32.612C34.2408 33.676 33.6108 34.586 32.5048 34.586ZM40.5859 36.168C41.6359 36.168 42.6999 35.846 43.3719 35.23L42.5879 34.082C42.1539 34.502 41.3559 34.754 40.7819 34.754C39.6339 34.754 38.9479 34.04 38.8359 33.186H43.8619V32.794C43.8619 30.582 42.4899 29.07 40.4739 29.07C38.4159 29.07 36.9739 30.652 36.9739 32.612C36.9739 34.782 38.5279 36.168 40.5859 36.168ZM42.1399 31.982H38.8079C38.8919 31.31 39.3679 30.484 40.4739 30.484C41.6499 30.484 42.0979 31.338 42.1399 31.982ZM51.7542 36L48.9962 32.304L51.6702 29.238H49.4862L46.9242 32.248V29.238H45.1462V36H46.9242V34.264L47.7362 33.396L49.5282 36H51.7542ZM55.6763 36V30.792H57.5663V29.238H51.9943V30.792H53.8843V36H55.6763ZM60.2913 33.144L61.8173 32.696C61.6773 32.57 61.5653 32.332 61.5653 32.108C61.5653 30.932 63.9033 30.778 63.9033 28.734C63.9033 27.432 62.7973 26.522 60.9913 26.522C59.7873 26.522 58.6673 27.012 57.9253 27.88L59.0593 29.154C59.4933 28.636 60.0813 28.286 60.7813 28.286C61.5513 28.286 61.8733 28.65 61.8733 29.084C61.8733 30.05 59.8293 30.246 59.8293 31.912C59.8293 32.402 59.9973 32.822 60.2913 33.144ZM60.9633 36.154C61.5793 36.154 62.0973 35.636 62.0973 35.02C62.0973 34.404 61.5793 33.886 60.9633 33.886C60.3473 33.886 59.8293 34.404 59.8293 35.02C59.8293 35.636 60.3473 36.154 60.9633 36.154Z" fill="white"/>
<defs>
<filter id="filter0_d" x="125.22" y="5" width="126.576" height="56" filterUnits="userSpaceOnUse" color-interpolation-filters="sRGB">
<feFlood flood-opacity="0" result="BackgroundImageFix"/>
<feColorMatrix in="SourceAlpha" type="matrix" values="0 0 0 0 0 0 0 0 0 0 0 0 0 0 0 0 0 0 127 0"/>
<feOffset dx="8" dy="8"/>
<feGaussianBlur stdDeviation="8"/>
<feColorMatrix type="matrix" values="0 0 0 0 0 0 0 0 0 0 0 0 0 0 0 0 0 0 0.25 0"/>
<feBlend mode="normal" in2="BackgroundImageFix" result="effect1_dropShadow"/>
<feBlend mode="normal" in="SourceGraphic" in2="effect1_dropShadow" result="shape"/>
</filter>
<linearGradient id="paint0_linear" x1="224.881" y1="25" x2="136.61" y2="17.5313" gradientUnits="userSpaceOnUse">
<stop stop-color="#A62E41"/>
<stop offset="1" stop-color="#E13152"/>
</linearGradient>
</defs>
</svg>

<svg width="252" height="61" fill="none" xmlns="http://www.w3.org/2000/svg"><rect width="240" height="50" rx="10" fill="#000"/><g filter="url(#filter0_d)"><rect x="133.22" y="13" width="94.576" height="24" rx="5" fill="url(#paint0_linear)"/><path d="M152.048 29.144c1.908 0 3.288-.972 3.288-2.352 0-1.2-1.056-1.836-1.86-1.92.876-.156 1.74-.816 1.74-1.824 0-1.332-1.296-2.172-3.168-2.172-1.404 0-2.544.54-3.192 1.272l.852 1.068c.564-.54 1.392-.828 2.172-.828.912 0 1.632.312 1.632.948 0 .588-.684.852-1.632.852h-1.62v1.5h1.62c1.2 0 1.764.288 1.764.924 0 .6-.612 1.02-1.668 1.02-.78 0-1.788-.336-2.34-.912l-.888 1.14c.588.72 1.824 1.284 3.3 1.284zM164.569 29l-3.084-8.004h-2.136L156.253 29h1.944l.504-1.356h3.432l.492 1.356h1.944zm-2.904-2.856h-2.496l1.248-3.444 1.248 3.444zM172.64 29l-3.396-4.248 3.18-3.756h-2.1l-2.832 3.576v-3.576h-1.704V29h1.704v-2.46l.624-.744L170.54 29h2.1zm8.721 0l-3.084-8.004h-2.136L173.045 29h1.944l.504-1.356h3.432l.492 1.356h1.944zm-2.904-2.856h-2.496l1.248-3.444 1.248 3.444zm6.789 3c1.908 0 3.288-.972 3.288-2.352 0-1.2-1.056-1.836-1.86-1.92.876-.156 1.74-.816 1.74-1.824 0-1.332-1.296-2.172-3.168-2.172-1.404 0-2.544.54-3.192 1.272l.852 1.068c.564-.54 1.392-.828 2.172-.828.912 0 1.632.312 1.632.948 0 .588-.684.852-1.632.852h-1.62v1.5h1.62c1.2 0 1.764.288 1.764.924 0 .6-.612 1.02-1.668 1.02-.78 0-1.788-.336-2.34-.912l-.888 1.14c.588.72 1.824 1.284 3.3 1.284zm12.52-.144l-3.084-8.004h-2.136L189.45 29h1.944l.504-1.356h3.432l.492 1.356h1.944zm-2.904-2.856h-2.496l1.248-3.444 1.248 3.444zM201.776 29v-6.504h2.328v-1.5h-6.384v1.5h2.34V29h1.716zm3.9-8.004V29h3.744c1.74 0 2.688-1.176 2.688-2.58 0-1.392-.96-2.58-2.688-2.58h-2.04v-2.844h-1.704zm3.516 4.344c.672 0 1.176.42 1.176 1.08 0 .672-.504 1.08-1.176 1.08h-1.812v-2.16h1.812z" fill="#F5F9FF"/></g><path d="M18.196 22c1.778 0 2.716-1.12 2.716-2.52 0-1.176-.798-2.142-1.792-2.296.882-.182 1.61-.966 1.61-2.142 0-1.246-.91-2.38-2.688-2.38h-4.914V22h5.068zm-.588-5.6h-2.492v-2.03h2.492c.672 0 1.092.434 1.092 1.022 0 .588-.42 1.008-1.092 1.008zm.07 3.878h-2.562v-2.17h2.562c.784 0 1.204.504 1.204 1.092 0 .672-.448 1.078-1.204 1.078zM28.207 22v-4.368c0-1.946-1.414-2.562-2.954-2.562-1.064 0-2.128.336-2.954 1.064l.672 1.19c.574-.532 1.246-.798 1.974-.798.896 0 1.484.448 1.484 1.134v.91c-.448-.532-1.246-.826-2.142-.826-1.078 0-2.352.602-2.352 2.184 0 1.512 1.274 2.24 2.352 2.24.882 0 1.68-.322 2.142-.868v.7h1.778zM25 20.964c-.7 0-1.274-.364-1.274-.994 0-.658.574-1.022 1.274-1.022.574 0 1.134.196 1.428.588v.84c-.294.392-.854.588-1.428.588zM37.964 22v-6.762h-2.352l-1.638 4.032-1.666-4.032H29.97V22h1.778v-4.396L33.568 22h.812l1.806-4.396V22h1.778zm11.706 0v-6.762h-6.356V22h1.778v-5.208h2.8V22h1.778zm4.901.168c2.24 0 3.584-1.624 3.584-3.556 0-1.918-1.344-3.542-3.584-3.542-2.226 0-3.57 1.624-3.57 3.542 0 1.932 1.344 3.556 3.57 3.556zm0-1.582c-1.106 0-1.722-.91-1.722-1.974 0-1.05.616-1.96 1.722-1.96 1.106 0 1.736.91 1.736 1.96 0 1.064-.63 1.974-1.736 1.974zM61.252 22v-2.702h2.8V22h1.778v-6.762h-1.778v2.506h-2.8v-2.506h-1.778V22h1.778zm10.207.168c1.736 0 2.996-1.302 2.996-3.556s-1.26-3.542-2.996-3.542c-.826 0-1.568.364-2.086 1.022v-.854h-1.778v9.338h1.778v-3.444c.546.7 1.288 1.036 2.086 1.036zm-.56-1.582c-.574 0-1.232-.35-1.526-.77v-2.394c.294-.434.952-.77 1.526-.77 1.022 0 1.708.798 1.708 1.96 0 1.176-.686 1.974-1.708 1.974zM81.596 22v-4.368c0-1.946-1.415-2.562-2.955-2.562-1.064 0-2.128.336-2.954 1.064l.672 1.19c.575-.532 1.247-.798 1.975-.798.895 0 1.483.448 1.483 1.134v.91c-.447-.532-1.245-.826-2.141-.826-1.079 0-2.353.602-2.353 2.184 0 1.512 1.275 2.24 2.353 2.24.882 0 1.68-.322 2.141-.868v.7h1.779zm-3.207-1.036c-.7 0-1.273-.364-1.273-.994 0-.658.573-1.022 1.273-1.022.575 0 1.135.196 1.428.588v.84c-.293.392-.853.588-1.427.588zM87.77 22c1.358 0 2.086-.812 2.086-1.834 0-.812-.546-1.484-1.288-1.652a1.557 1.557 0 001.148-1.54c0-.91-.7-1.736-2.072-1.736H83.36V22h4.41zm-.434-1.456h-2.198v-1.26h2.198c.448 0 .7.294.7.63 0 .392-.266.63-.7.63zm-.056-2.716h-2.142v-1.134h2.142c.392 0 .63.238.63.574 0 .308-.238.56-.63.56zM93.27 22l2.87-4.242V22h1.778v-6.762h-1.792l-2.786 4.088v-4.088h-1.778V22h1.708zm5.783.168c1.722 0 2.562-1.106 2.842-3.444l.224-1.932h2.142V22h1.778v-6.762h-5.474l-.434 3.276c-.21 1.638-.532 2.198-1.078 2.198v1.456zm11.901 0c1.386 0 2.226-.602 2.674-1.232l-1.162-1.078a1.707 1.707 0 01-1.428.728c-1.078 0-1.834-.798-1.834-1.974s.756-1.96 1.834-1.96c.616 0 1.106.252 1.428.728l1.162-1.092c-.448-.616-1.288-1.218-2.674-1.218-2.086 0-3.584 1.47-3.584 3.542 0 2.086 1.498 3.556 3.584 3.556zm5.629-.168l1.33-2.324h1.386V22h1.778v-6.762h-4.102c-1.498 0-2.338 1.022-2.338 2.212 0 1.204.728 1.904 1.498 2.1L114.567 22h2.016zm.672-3.808c-.504 0-.812-.308-.812-.742 0-.42.322-.714.812-.714h2.044v1.456h-2.044zM19.442 36v-6.762h-6.356V36h1.778v-5.208h2.8V36h1.778zm5.629.168c1.736 0 2.996-1.302 2.996-3.556s-1.26-3.542-2.996-3.542c-.826 0-1.568.364-2.086 1.022v-.854h-1.778v9.338h1.778v-3.444c.546.7 1.288 1.036 2.086 1.036zm-.56-1.582c-.574 0-1.232-.35-1.526-.77v-2.394c.294-.434.952-.77 1.526-.77 1.022 0 1.708.798 1.708 1.96 0 1.176-.686 1.974-1.708 1.974zm7.994 1.582c2.24 0 3.584-1.624 3.584-3.556 0-1.918-1.344-3.542-3.584-3.542-2.226 0-3.57 1.624-3.57 3.542 0 1.932 1.344 3.556 3.57 3.556zm0-1.582c-1.106 0-1.722-.91-1.722-1.974 0-1.05.616-1.96 1.722-1.96 1.106 0 1.736.91 1.736 1.96 0 1.064-.63 1.974-1.736 1.974zm8.08 1.582c1.05 0 2.115-.322 2.787-.938l-.784-1.148c-.434.42-1.232.672-1.806.672-1.148 0-1.834-.714-1.946-1.568h5.026v-.392c0-2.212-1.372-3.724-3.388-3.724-2.058 0-3.5 1.582-3.5 3.542 0 2.17 1.554 3.556 3.612 3.556zm1.555-4.186h-3.332c.084-.672.56-1.498 1.666-1.498 1.176 0 1.624.854 1.666 1.498zM51.754 36l-2.758-3.696 2.674-3.066h-2.184l-2.562 3.01v-3.01h-1.778V36h1.778v-1.736l.812-.868L49.528 36h2.226zm3.922 0v-5.208h1.89v-1.554h-5.572v1.554h1.89V36h1.792zm4.615-2.856l1.526-.448a.846.846 0 01-.252-.588c0-1.176 2.338-1.33 2.338-3.374 0-1.302-1.106-2.212-2.912-2.212-1.204 0-2.324.49-3.066 1.358l1.134 1.274c.434-.518 1.022-.868 1.722-.868.77 0 1.092.364 1.092.798 0 .966-2.044 1.162-2.044 2.828 0 .49.168.91.462 1.232zm.672 3.01c.616 0 1.134-.518 1.134-1.134 0-.616-.518-1.134-1.134-1.134-.616 0-1.134.518-1.134 1.134 0 .616.518 1.134 1.134 1.134z" fill="#fff"/><defs><linearGradient id="paint0_linear" x1="224.881" y1="25" x2="136.61" y2="17.531" gradientUnits="userSpaceOnUse"><stop stop-color="#A62E41"/><stop offset="1" stop-color="#E13152"/></linearGradient><filter id="filter0_d" x="125.22" y="5" width="126.576" height="56" filterUnits="userSpaceOnUse" color-interpolation-filters="sRGB"><feFlood flood-opacity="0" result="BackgroundImageFix"/><feColorMatrix in="SourceAlpha" values="0 0 0 0 0 0 0 0 0 0 0 0 0 0 0 0 0 0 127 0"/><feOffset dx="8" dy="8"/><feGaussianBlur stdDeviation="8"/><feColorMatrix values="0 0 0 0 0 0 0 0 0 0 0 0 0 0 0 0 0 0 0.25 0"/><feBlend in2="BackgroundImageFix" result="effect1_dropShadow"/><feBlend in="SourceGraphic" in2="effect1_dropShadow" result="shape"/></filter></defs></svg>
